!!!!SEGMENT: pl-kk--kk-i-6--038-003_anonim--missa-de-beata-virgine-maria-patrem.krn
!!!cenid: 16xx:1023
!!!COM: Anonim
!!!COM-rismid: pe30004985
!!!CDT:
!!!CNT:
!!!OPR: Missa de Beata Virgine Maria
!!!OTL: Patrem
!!!OMV: 003
!!!PDT:
!!!AGN: Sacred; Mass
!!!SMS-siglum: PL-Kk
!!!SMS-shelfmark: Kk.I.6
!!!SMS-shelfwork: 038-003 M
!!!SMS-variant:
!!!SMS-altvar:
!!!NIFC-rismid: 1001136486
!!!URL-scan: http://repozytorium.nifc.pl/skany/pl-kk-nut--i-6
!!!ONB-nifc: UWAGA: C (skan 0052-0057, s. 101-111), T (skan 0164-0169, s. 133-143), B (skan 0273-0279, s. 129-141) Części Mszy: 1. Kyrie, 2. Et in terra, 3. Patrem, 4. Sanctus, 5. Agnus Dei. Uwaga: zmienna liczba głosów w niektórych ustępach
**kern	**text	**kern	**text	**kern	**text
*part3	*part3	*part2	*part2	*part1	*part1
*staff3	*staff3	*staff2	*staff2	*staff1	*staff1
*Iempty	*	*Itenor	*	*Ivox	*
*I"Baſsus.	*	*I"Tenor.	*	*I"Cantus.	*
*I'B	*	*I'T	*	*I'S	*
*clefF4	*	*clefC4	*	*clefC4	*
*k[b-]	*	*k[b-]	*	*k[b-]	*
*g:	*	*g:	*	*g:	*
*M2/1	*	*M2/1	*	*M2/1	*
*met(C|)	*	*met(C|)	*	*met(C|)	*
=1-	=1-	=1-	=1-	=1-	=1-
*	*	*	*	*lig	*
0r	.	00r	.	1A	PA-
.	.	.	.	1B-	.
*	*	*	*	*Xlig	*
=2-	=2-	=2-	=2-	=2-	=2-
*lig	*	*	*	*	*
1D	PA-	.	.	2A/	.
!	!	!	!	!LO:TX:t=P:problem:♯ below	!
.	.	.	.	2F#X/	-trem
!LO:TX:t=P:problem:♭ above	!	!	!	!	!
1E-X	.	.	.	1G	om-
*Xlig	*	*	*	*	*
=3-	=3-	=3-	=3-	=3-	=3-
2D/	-trem	1r	.	2A/	-ni-
2BB-/	.	.	.	2.G/	-po-
*	*	*lig	*	*	*
2C/	om-	1A	PA-	.	.
.	.	.	.	8F/Lny	-ten-
.	.	.	.	8E/J	.
!	!	!	!	!LO:TX:t=P:problem:♯ below	!
2D/	-ni-	.	.	2F#X/	-tem
=4-	=4-	=4-	=4-	=4-	=4-
4GG/	-po-	1B-	.	2G/	.
4AA/	-ten-	.	.	.	.
4BB-/	.	.	.	4D/	Pa-
4C/	.	.	.	4E/	.
*	*	*Xlig	*	*	*
1D	.	2A/	-trem	4F/ny	.
.	.	.	.	4G/	.
.	.	2F/	om-	4A/	.
!	!	!	!	!LO:TX:a:t=P:problem:all\middle or left:global	!
.	.	.	.	4B-\	.
=5-	=5-	=5-	=5-	=5-	=5-
1C	-tem	2G/	-ni-	1c	.
.	.	2A/	-po-	.	.
!	!	!	!	!LO:SIC:v:t=custos F	!
2r	.	1B-	-ten-	1G	-trem
!LO:TX:a:t=P:problem:all\middle or left:global	!	!	!	!	!
2G\	Om-	.	.	.	.
!	!	!	!	!LO:LB:g=original	!
=6-	=6-	=6-	=6-	=6-	=6-
2F\	-ni-	1A	-tem	2rF	.
2D/	-po-	.	.	2F/	om-
1E-X	-ten-	1r	.	2B-\	-ni-
.	.	.	.	2G/	-po-
=7-	=7-	=7-	=7-	=7-	=7-
2D,</	-te(m),	2r	.	2.B-\	-ten-
!LO:SIC:v:t=custos C	!	!	!	!	!
!	!	!LO:TX:a:t=P:problem:all\middle or left:global	!	!	!
2BB-/	o-	2d\	om-	.	.
.	.	.	.	4A/	.
!LO:LB:g=original	!	!	!	!	!
2C/	-mni-	2c\	-ni-	4G/	.
.	.	.	.	4F/	.
2C/	-po-	2c\	-po-	2.G/	.
=8-	=8-	=8-	=8-	=8-	=8-
1D	-ten-	1A	-ten-	.	.
!	!	!	!	!LO:TX:t=P:problem:♯ below	!
.	.	.	.	8F#X/L	.
.	.	.	.	8E/J	.
!	!	!	!	!LO:TX:t=P:problem:♯ below	!
.	.	.	.	2F#X/	-tem
1GG	-tem	2G/	-tem	1G	.
.	.	2B-\	fa-	.	.
=9-	=9-	=9-	=9-	=9-	=9-
0rD	.	2c\	-cto-	2rF	.
!	!	!LO:SIC:v:t=custos e	!	!	!
.	.	2d\	-rem	2F/ny	fa-
!	!	!LO:PB:g=original	!	!	!
.	.	1e-X	Cae-	2G/	-cto-
.	.	.	.	2A/	-rem
=10-	=10-	=10-	=10-	=10-	=10-
2rBB	.	1d	-li	1B-	cae-
2BB-/	Fa-	.	.	.	.
2C/	-cto-	0r	.	2A/	-li
2D/	-rem	.	.	2A/	et
=11-	=11-	=11-	=11-	=11-	=11-
1Eny	cae-	.	.	2.G/	ter-
.	.	.	.	4F/	.
2E\	-li	2r	.	4G/	.
!	!	!	!	!LO:SIC:v:t=custos B-	!
.	.	.	.	4A/	.
!	!	!	!	!LO:LB:g=original	!
2D/	et	2F/	fa-	2B-\	.
=12-	=12-	=12-	=12-	=12-	=12-
1C	ter-	2G/	-cto-	1c	.
.	.	2A/	-rem	.	.
2BB-,</	-rae	1B-	cae-	2F/	-rae
2GG/	et	.	.	2G/	et
=13-	=13-	=13-	=13-	=13-	=13-
2.C/	ter-	2A/	-li	2.E/	ter-
.	.	1G	et	.	.
4BB-/	.	.	.	4D/	.
1AA	-rae	.	.	1C	.
!	!	!LO:TX:t=P:problem:♯ below	!	!	!
.	.	2F#X/	ter-	.	.
=14-	=14-	=14-	=14-	=14-	=14-
2GG,</	.	2G/	-rae	2D,</	-rae
!	!	!LO:TX:t=P:problem:♯ below	!	!	!
!	!	!LO:N:acc=#	!	!	!
1GG	vi-	1Bn	Vi-	1G	Vi-
2GG/	ſi-	2B\	-si-	2G/	-ſi-
=15-	=15-	=15-	=15-	=15-	=15-
2.C/	-bi-	2.c\	-bi-	2.G/	-bi-
!LO:SIC:v:t=custos BB-	!	!	!	!	!
4C/	-li-	4c\	-li-	4G/	-li-
!LO:LB:g=original	!	!	!	!	!
2BB-,</	-um	2d\	-um	2B-\	-um
1F\	om-	1c\	om-	1A\	o-
=16-	=16-	=16-	=16-	=16-	=16-
.	.	.	.	.	.
2G\	-ni-	2B-y\	-ni-	2G/	mni-
2F,<\	-um	2c\	-um	2A,</	-um
1BB-/	Et	1d\	et	1B-\	et
=17-	=17-	=17-	=17-	=17-	=17-
.	.	.	.	.	.
!	!	!LO:SIC:v:t=custos c	!	!	!
2BB-/	in-	2d\	in-	2B-\	in-
!	!	!LO:LB:g=original	!	!	!
2C/	-Vi-	2.c\	-Vi-	2A/	-Vi-
2C/	-ſi-	.	.	2G/	-ſi-
.	.	4B-\	.	.	.
=18-	=18-	=18-	=18-	=18-	=18-
!	!	!	!	!LO:TX:t=P:problem:♯ below	!
1.D	-bi-	2A/	-ſi-	2F#X/	-bi-
!	!	!	!	!LO:SIC:v:t=custos F#	!
.	.	2B-\	-bi-	1G	.
.	.	2.A/	.	.	.
!	!	!	!	!LO:LB:g=original	!
!	!	!	!	!LO:TX:t=P:problem:♯ below	!
2D/	-li-	.	.	2F#X/	-li-
.	.	4A/	-li-	.	.
=19-	=19-	=19-	=19-	=19-	=19-
2GG,</	-um	1G	-um	2G,</	-um
1G	Et	.	.	1B-	Et
.	.	1rA	.	.	.
!LO:TX:t=P:problem:♯ below	!	!	!	!	!
2F#X\	in	.	.	2A/	in
=20-	=20-	=20-	=20-	=20-	=20-
2G\	V-	2rF	.	2B-\	V-
2D/	-num	1d	Et	2A/	-num
*	*	*	*	*lig	*
2.E\	Do-	.	.	1G	Do-
.	.	2c\	in	.	.
4E\	-mi-	.	.	.	.
=21-	=21-	=21-	=21-	=21-	=21-
*	*	*	*	*col	*
1D	-num	2d\	V-	2.A\	.
.	.	2A/	-num	.	.
*	*	*	*	*Xlig	*
*	*	*	*	*Xcol	*
.	.	.	.	4A/	mi-
0rC	.	2.B-\	D(o-	2G,</	-num
.	.	.	.	1d\	D(o-
.	.	4B-\	-mi)-	.	.
=22-	=22-	=22-	=22-	=22-	=22-
.	.	1A	-num	.	.
!	!	!	!	!LO:TX:t=P:problem:♯ below	!
.	.	.	.	2c#X\	-mi)-
2rC	.	2rF	.	2d\	-num
1GG/	Je-	1G/	Je-	1B-\	Je-
=23-	=23-	=23-	=23-	=23-	=23-
.	.	.	.	.	.
!LO:SIC:v:t=custos BB-	!	!	!	!	!
2D/	-ſum	2F/ny	-sum	2A/	.
!LO:LB:g=original	!	!	!	!	!
4BB-/	Chri-	1.B-	Chri-	1.d	-sum
4C/	.	.	.	.	.
4D/	.	.	.	.	.
4E\	.	.	.	.	.
=24-	=24-	=24-	=24-	=24-	=24-
0Fny	-ſtum	.	.	.	.
.	.	4A/	.	4c\ny	Chri-
.	.	4G/	.	4B-\	.
.	.	1A	.	1c	.
=25-	=25-	=25-	=25-	=25-	=25-
!	!	!LO:SIC:v:t=custos F	!	!LO:SIC:v:t=custos B-	!
1BB-	.	1B-	-ſtum	1d	-ſtum
!	!	!LO:LB:g=original	!	!LO:LB:g=original	!
2rC	.	2.F/	Fi-	00r	.
2.BB-/	Fi-	.	.	.	.
.	.	4F/	-li-	.	.
=26-	=26-	=26-	=26-	=26-	=26-
.	.	2G/	-um	.	.
4BB-/	-li-	.	.	.	.
2C,</	-um	2A/	De-	.	.
!	!	!LO:TX:t=P:problem:♯ below	!	!	!
2D/	De-	2F#X/	-i	.	.
2BB-,</	-i	1G/	V-	.	.
=27-	=27-	=27-	=27-	=27-	=27-
2C/	v-	.	.	.	.
2D/	-ni-	2F#/	-ni-	.	.
2.E-X\	-ge-	2.G/	-ge-	0rF	.
4E-\	-ni-	4G/	-ni-	.	.
=28-	=28-	=28-	=28-	=28-	=28-
2D,</	-tum	2A/	-tum	.	.
1E-X	v-	1G	V-	.	.
.	.	.	.	2rF	.
2D/	-ni-	2F/ny	-ni-	1B-\	Et
=29-	=29-	=29-	=29-	=29-	=29-
2.C/	-ge-	2G/	-ge-	.	.
.	.	2C/	-ni-	2A/	ex
4C/	-ni-	.	.	.	.
!LO:SIC:v:t=custos B-	!	!	!	!	!
1BB-	-tum	1F	-tum	2B-\	Pa-
.	.	.	.	2B-\	-tre
!LO:LB:g=original	!	!	!	!	!
=30-	=30-	=30-	=30-	=30-	=30-
1.B-	Et	0r	.	1G	na-
.	.	.	.	2F,</ny	-tum
*	*	*	*	*	*ij
2A\	ex	.	.	2c\	Et
=31-	=31-	=31-	=31-	=31-	=31-
2B-\	Pa-	1r	.	1.d	ex
2B-\	-tre	.	.	.	.
1G	na-	1.B-	Et	.	.
.	.	.	.	2G/	Pa-
=32-	=32-	=32-	=32-	=32-	=32-
1F,<	-tum	.	.	1c	-tre
.	.	2A/	ex	.	.
1BB-	Et	2B-\	Pa-	1d	na-
!	!	!LO:SIC:v:t=custos G	!	!	!
.	.	2B-\	-tre	.	.
!	!	!LO:LB:g=original	!	!	!
=33-	=33-	=33-	=33-	=33-	=33-
1C	ex	1G	na-	2c\	-tum
*	*	*	*	*	*Xij
.	.	.	.	2C/	Et
2D/	Pa-	2F/	-tum	1F	ex
2BB-/	-tre	2.B-\	.	.	.
=34-	=34-	=34-	=34-	=34-	=34-
*lig	*	*	*	*	*
1Eny	na-	.	.	2G/	pa-
.	.	4A/	na-	.	.
.	.	2.G/	.	2G/	-tre
1D	.	.	.	1A	na-
!	!	!LO:TX:t=P:problem:♯ below	!	!	!
.	.	8F#X/L	.	.	.
.	.	8E/J	.	.	.
!	!	!LO:TX:t=P:problem:♯ below	!	!	!
.	.	2F#X/	.	.	.
*Xlig	*	*	*	*	*
=35-	=35-	=35-	=35-	=35-	=35-
!	!	!	!	!LO:SIC:v:t=custos B-	!
2GG,</	-tum	2G,</	-tum	2G/	-tum
!	!	!	!	!LO:LB:g=original	!
1G	an-	1d	an-	1B-	an-
2G\	-te	2d\	-te	2B-\	-te
=36-	=36-	=36-	=36-	=36-	=36-
2F\	om-	2d\	om-	2A/	om-
2E\	-ni-	2c\	-ni-	2G/	-ni-
1D	-a	2d\	-a	2A/	-a
.	.	1A\	Sae-	1d\	ſae-
=37-	=37-	=37-	=37-	=37-	=37-
2.AA/	ſae-	.	.	.	.
!	!	!	!	!LO:TX:t=P:problem:♯ below	!
.	.	2A/	-cu-	2c#X\	-cu-
4AA/	-cu-	.	.	.	.
0D	-la,	1A	-la	2d\	-la
.	.	.	.	2A/	De-
=38-	=38-	=38-	=38-	=38-	=38-
.	.	2rF	.	2A/	-um
.	.	2D/	De-	2A/	de
!LO:SIC:v:t=custos t=custos (tekstowy): Deum	!	!	!	!	!
!LO:TX:b:i:t=Deum	!	!	!	!	!
!LO:SIC:v:t=custos GG	!	!	!	!	!
!LO:PB:g=original	!	!	!	!	!
1rD	.	2D/	-um	1d	De-
!	!	!LO:SIC:v:t=custos G	!	!	!
.	.	2D/	de	.	.
!	!	!LO:LB:g=original	!	!	!
=39-	=39-	=39-	=39-	=39-	=39-
!	!	!	!	!LO:TX:t=P:problem:♯ below	!
!	!	!	!	!LO:N:acc=#	!
2rC	.	2.G/	De-	1Bn	-o
2GG/	De-	.	.	.	.
.	.	4A/	.	.	.
!	!	!LO:TX:t=P:problem:♯ below	!	!	!
!	!	!LO:N:acc=#	!	!	!
2GG/	-um	4Bn\	.	2rF	.
.	.	4c\	.	.	.
*	*	*	*	*	*ij
2GG/	de	4d\	.	2G/	De-
!	!	!LO:TX:t=P:problem:♯ below	!	!	!
!	!	!LO:N:acc=#	!	!	!
.	.	4Bn\	.	.	.
=40-	=40-	=40-	=40-	=40-	=40-
1C	De-	1.c	.	2G/	-um
.	.	.	.	2G/	de
1AA	-o	.	.	1cny	De-
.	.	2A/	-o	.	.
=41-	=41-	=41-	=41-	=41-	=41-
1.D	lu-	1.Fny	lu-	1A	-o
*	*	*	*	*	*Xij
.	.	.	.	1.A	lu-
2C/	-men	2E/	-men	.	.
=42-	=42-	=42-	=42-	=42-	=42-
*	*	*lig	*	*	*
!	!	!	!	!LO:SIC:v:t=custos G	!
1BB-	de	1D	de	.	.
!	!	!	!	!LO:LB:g=original	!
.	.	.	.	2G/	-men
*	*	*col	*	*	*
2.AA/	lu-	2.E/	.	1A	de
*	*	*Xlig	*	*	*
*	*	*Xcol	*	*	*
4AA/	-mi-	4F/	.	.	.
=43-	=43-	=43-	=43-	=43-	=43-
1GG	-ne	2G/	lu-	2.D/	lu-
.	.	1G	-mi-	.	.
.	.	.	.	4D/	-mi-
1rD	.	.	.	1D	-ne
!	!	!LO:TX:t=P:problem:♯ below	!	!	!
.	.	2F#X/	-ne	.	.
=44-	=44-	=44-	=44-	=44-	=44-
2rC	.	2G/	De-	2rF	.
!	!	!LO:TX:t=P:problem:♯ below	!	!	!
!	!	!LO:N:acc=#	!	!	!
1GG	De-	1Bn	.	1G	De-
2GG/	-um	2B\	-um	2G/	-um
=45-	=45-	=45-	=45-	=45-	=45-
1C	Ve-	1c	Ve-	1G	Ve-
!	!	!LO:TX:t=P:problem:♯ below	!	!	!
!	!	!LO:N:acc=#	!	!	!
!	!	!LO:SIC:v:t=custos d	!	!	!
2GG/	-rum	2Bn\	-rum	2G/	-rum
!	!	!	!	!LO:SIC:v:s=2Bn	!
!	!	!LO:LB:g=original	!	!	!
2G\	de	1d\	De	2B-y\	de
=46-	=46-	=46-	=46-	=46-	=46-
!	!	!	!	!LO:SIC:v:s=2Bn	!
2G\	De-	.	.	2B-\	De-
!LO:SIC:v:t=custos E	!	!	!	!	!
2F\	-o	1d	De-	2A/	-o
!LO:LB:g=original	!	!	!	!	!
1E-X	Ve-	.	.	1G	Ve-
.	.	2c\	-o	.	.
=47-	=47-	=47-	=47-	=47-	=47-
1D	-ro	2B-y\	Ve-	1.d	-ro
.	.	4A/	.	.	.
.	.	4G/	.	.	.
2rC	.	2.A/	.	.	.
*	*ij	*	*	*	*
!	!	!	!	!LO:TX:t=P:problem:♯ below	!
2AA/	de	.	.	2c#X\	de
.	.	4G/	.	.	.
=48-	=48-	=48-	=48-	=48-	=48-
2BB-/	De-	2F/ny	.	2d\	De-
2GG/	-o	2.G/	.	2B-\	-o
1D	Ve-	.	.	1A	Ve-
!	!	!LO:TX:t=P:problem:♯ below	!	!	!
.	.	8F#X/L	.	.	.
.	.	8E/J	.	.	.
!	!	!LO:TX:t=P:problem:♯ below	!	!	!
.	.	2F#X/	.	.	.
=49-	=49-	=49-	=49-	=49-	=49-
!	!	!	!	!LO:SIC:v:t=custos d	!
2GG,</	-ro	2G/	-ro	1G	-ro
*	*Xij	*	*	*	*
1G	ge-	1B-	ge-	.	.
!	!	!	!	!LO:PB:g=original	!
.	.	.	.	2rF	.
2G\	-ni-	2B-\	-ni-	1d\	Ge-
=50-	=50-	=50-	=50-	=50-	=50-
2F\	-tum	2A/	-tum	.	.
2D/	non	2F/ny	non	2d\	-ni-
1F	fa-	2.A/	.	2c\ny	-tum
.	.	.	.	2A/	non
.	.	8G/L	fa-	.	.
.	.	8F/J	.	.	.
=51-	=51-	=51-	=51-	=51-	=51-
1C	-ctum	4G/	.	2.c\	.
!	!	!LO:SIC:v:t=custos E	!	!	!
.	.	4F/	.	.	.
!	!	!LO:LB:g=original	!	!	!
.	.	4E-X/	.	.	.
.	.	4D/	.	8B-\L	fa-
.	.	.	.	8A\J	.
1r	.	1E-X	.	4G/	.
.	.	.	.	4A/	.
.	.	.	.	4B-\	.
.	.	.	.	4c\	.
=52-	=52-	=52-	=52-	=52-	=52-
2r	.	1D	ctum	1d	-ctum
1D	con-	.	.	.	.
.	.	2rD	.	1A	.
2D/	-sub-	1A\	con-	.	.
=53-	=53-	=53-	=53-	=53-	=53-
2C/	-ſtan-	.	.	2r	.
2AA/	-ti-	2A/	-sub-	1c	con-
!LO:SIC:v:t=custos GG	!	!	!	!	!
1C	-a-	2G/	-stan-	.	.
.	.	2E/ny	-ti-	2c\	-sub-
!LO:LB:g=original	!	!	!	!	!
=54-	=54-	=54-	=54-	=54-	=54-
0GG	-lem	1.G	-a-	2B-\	-ſtan-
.	.	.	.	2G/	-ti-
.	.	.	.	2.B-\	-a-
.	.	2D/	-lem	.	.
.	.	.	.	8A/L	.
.	.	.	.	8G/J	.
=55-	=55-	=55-	=55-	=55-	=55-
1rD	.	2.F/	Pa-	2A/	-lem
!	!	!	!	!LO:SIC:v:t=custos G	!
.	.	.	.	2F/	.
.	.	8E/L	.	.	.
.	.	8D/J	.	.	.
!	!	!	!	!LO:LB:g=original	!
2rC	.	4C/	.	2.G/	Pa-
.	.	4D/	.	.	.
1C/	Pa-	4E/	.	.	.
.	.	4F/	.	4F/	.
=56-	=56-	=56-	=56-	=56-	=56-
.	.	1.G	.	2E/	.
2BB-/	.	.	.	2D/	-tri
2C/	.	.	.	0rF	.
!	!	!LO:TX:t=P:problem:♯ below	!	!	!
2D/	-tri	2F#X/	.	.	.
=57-	=57-	=57-	=57-	=57-	=57-
2GG,</	.	2G/	-tri	.	.
!	!	!LO:TX:t=P:problem:♯ below	!	!	!
!	!	!LO:N:acc=#	!	!	!
1G	per	1Bn	per	.	.
.	.	.	.	2rF	.
!	!	!LO:SIC:v:t=custos c	!	!	!
2G\	.	2B\	quem	1G/	per
!	!	!LO:PB:g=original	!	!	!
=58-	=58-	=58-	=58-	=58-	=58-
2.C/	quem	1.c	O-	.	.
.	.	.	.	2G/	quem
4C/	om-	.	.	.	.
1F	-ni-	.	.	2.A/	.
.	.	2c\	-mni-	.	.
.	.	.	.	4A/	om-
=59-	=59-	=59-	=59-	=59-	=59-
2.BB-/	-a	2d\	-a	2.B-\	-ni-
.	.	2.B-y\	fa-	.	.
4C/	fa-	.	.	8A/L	-a
.	.	.	.	8G/J	.
2D/	.	.	.	2F/	.
.	.	4A/	.	.	.
2E-X\	cta	4G/	.	1G/	fa-
.	.	4A/	.	.	.
=60-	=60-	=60-	=60-	=60-	=60-
1D	ſunt	2B-\	.	.	.
!	!	!	!	!LO:TX:t=P:problem:♯ below	!
.	.	2A/	-cta	2F#X/	-cta
2r	.	2G/	ſunt	1G	sunt
1G\	Qui	1B-\	.	.	.
=61-	=61-	=61-	=61-	=61-	=61-
.	.	.	.	1rA	.
2F\	p(ro)-	2A/	qui	.	.
2D/	-pter	2F/ny	pro-	2rF	.
!LO:SIC:v:t=custos E	!	!	!	!	!
2F\	nos	2A/	-pter	1d\	Qui
!LO:LB:g=original	!	!	!	!	!
=62-	=62-	=62-	=62-	=62-	=62-
*	*	*lig	*	*	*
2.E\ny	ho-	1G	.	.	.
.	.	.	.	2c\	pro-
4E\	-mi-	.	.	.	.
*	*	*col	*	*	*
0D,<	-nes	2.A\	.	2d\	-pter
.	.	.	.	2d\	nos
!	!	!	!	!LO:SIC:v:t=custos A	!
*	*	*Xlig	*	*	*
*	*	*Xcol	*	*	*
.	.	4G/	nos	.	.
!	!	!	!	!LO:LB:g=original	!
=63-	=63-	=63-	=63-	=63-	=63-
.	.	2F/	ho-	2.A/	ho-
.	.	2F/	-mi-	.	.
!	!	!	!	!LO:TX:t=P:problem:♯ below	!
!	!	!	!	!LO:N:acc=#	!
.	.	.	.	4Bn\	-mi-
1C	nos	1G	-nes	2c\	-nes
.	.	.	.	1c\	.
=64-	=64-	=64-	=64-	=64-	=64-
1.G	ho-	1rA	.	.	.
.	.	.	.	2B-y\	qui
!	!	!LO:SIC:v:t=custos G	!	!	!
.	.	2rF	.	2G/	pro-
!	!	!LO:LB:g=original	!	!	!
2G\	-mi-	1G/	qui	1B-\	.
=65-	=65-	=65-	=65-	=65-	=65-
0D	-nes	.	.	.	.
.	.	2F/	pro-	4A/	-pter
.	.	.	.	4G/	.
.	.	2D/	-(pter)	1A	nos
.	.	2F/	nos	.	.
=66-	=66-	=66-	=66-	=66-	=66-
1rD	.	2.E/	ho-	2.G/	h(o-
.	.	4E/	-(mi)-	4G/	-mi)-
2rC	.	2D,</	-nes	2A,</	-nes.
1GG/	et	1G/	et	1B-\	et
=67-	=67-	=67-	=67-	=67-	=67-
.	.	.	.	.	.
!	!	!LO:TX:t=P:problem:♯ below	!	!	!
2D/	pro-	2F#X/	p(ro)-	2A/	pro-
2GG/	-pter	2G/	-pter	2G/	-pter
!	!	!	!	!LO:TX:t=P:problem:♯ below	!
!	!	!	!	!LO:N:acc=#	!
2G\	no-	2G/	n(o-	2Bn\	no-
=68-	=68-	=68-	=68-	=68-	=68-
2F\	-ſtram	2A/	-st)ram	2c\	-stram
2BB-/	ſa-	1B-	Sa-	2d\	Sa-
1F	-lu-	.	.	1c	-lu-
.	.	2A/	-lu-	.	.
=69-	=69-	=69-	=69-	=69-	=69-
!	!	!	!	!LO:SIC:v:t=custos d	!
2BB-,</	-tem	1B-	-tem	2B-y\	-tem
!	!	!	!	!LO:LB:g=original	!
1B-	de-	.	.	1d	de-
.	.	1r	.	.	.
2A\	-ſcen-	.	.	2c\	-scen-
=70-	=70-	=70-	=70-	=70-	=70-
2G\	-dit	1.d	de-	2B-\	-dit
2F\	de	.	.	2A/	de
!LO:SIC:v:t=custos D	!	!	!	!	!
1E-X	cae-	.	.	1G	cae-
.	.	2c\	-scen-	.	.
!LO:LB:g=original	!	!	!	!	!
=71-	=71-	=71-	=71-	=71-	=71-
1D	-lis	2B-\	-dit	2d\	-lis
.	.	2A/	de	2d\	de
1r	.	2.G/	cae-	2.B-\	cae-
!	!	!LO:SIC:v:t=custos E	!	!	!
.	.	4F/ny	.	4A/	.
!	!	!LO:LB:g=original	!	!	!
=72-	=72-	=72-	=72-	=72-	=72-
2r	.	1E-X	.	1G	.
1G	de-	.	.	.	.
.	.	2D/	-lis	2A/	-lis
*	*	*	*ij	*	*
2F\	-ſcen-	2D/	de-	2A/	de-
=73-	=73-	=73-	=73-	=73-	=73-
2E-X\	-dit	2G/	-scen-	1B-	-scen-
*	*ij	*	*	*	*
2D/	de-	2F/	-dit	.	.
2.C/	-ſcen-	1Eny	de	2A/	-dit
.	.	.	.	1G/	de
4BB-/	-dit	.	.	.	.
=74-	=74-	=74-	=74-	=74-	=74-
1AA	de	1C	cae-	.	.
!	!	!	!	!LO:TX:t=P:problem:♯ below	!
.	.	.	.	2F#X/	cae-
2GG/	cae-	2D,</	-lis	2G/	-lis
*	*	*	*Xij	*	*
2GG/	-lis	2G/	.	2d\	de
*	*Xij	*	*	*	*
=75-	=75-	=75-	=75-	=75-	=75-
!	!	!LO:TX:t=P:problem:♯ below	!	!	!
2D/	de	2F#X/	de	2d\	cae-
2E-X\	cae-	2G/	.	2c\	.
1D	-lis.	1A	Cae-	1d	-lis.
=76-	=76-	=76-	=76-	=76-	=76-
!	!	!	!	!LO:SIC:v:t=custos d	!
!LO:SIC:v:t=custos GG	!	!	!	!	!
!	!	!LO:N:acc=#	!	!	!
0GG;;l	.	0Bnl	-lis	0dl	.
!LO:LB:g=original	!	!LO:LB:g=original	!	!LO:LB:g=original	!
=77||	=77||	=77||	=77||	=77||	=77||
*M2/1	*	*M2/1	*	*M2/1	*
*met(C|)	*	*met(C|)	*	*met(C|)	*
0GG	ET	0G	ET	0d	ET
=78-	=78-	=78-	=78-	=78-	=78-
1.C	in-	1.G	in-	1.e-X	in-
2C/	-car-	2G/	-car-	2e-\	-car-
=79-	=79-	=79-	=79-	=79-	=79-
!LO:TX:t=P:problem:♯ below	!	!	!	!	!
!LO:N:acc=#	!	!	!	!	!
2BBn/	-na-	2G/	-na-	2d\	-na-
2C/	-tus	2G/	-tus	1c	.
0GG	eſt	0G	eſt	.	.
!	!	!	!	!LO:TX:t=P:problem:♯ below	!
!	!	!	!	!LO:N:acc=#	!
.	.	.	.	4Bn\	.
.	.	.	.	4A/	-tus
=80-	=80-	=80-	=80-	=80-	=80-
!	!	!	!	!LO:TX:t=P:problem:♯ below	!
!	!	!	!	!LO:N:acc=#	!
.	.	.	.	1Bn	eſt
!	!	!LO:SIC:v:s=0Bn	!	!	!
0G	de	0B-	de	0d	de
=81-	=81-	=81-	=81-	=81-	=81-
.	.	.	.	.	.
!LO:SIC:v:s=1.E-	!	!	!	!	!
1.E	Spi-	1.B-	Spi-	1.e-X	Spi-
=82-	=82-	=82-	=82-	=82-	=82-
.	.	.	.	.	.
!LO:SIC:v:s=2E-	!	!	!	!	!
2E\	-ri-	2B-\	-ri-	2e-\	-ri-
1BB-y	-tu	2B-\	-tu	1d	-tu
.	.	1B-\	.	.	.
=83-	=83-	=83-	=83-	=83-	=83-
0F	San-	.	.	0c	San-
.	.	4A/	San-	.	.
.	.	4G/	.	.	.
.	.	1A	.	.	.
=84-	=84-	=84-	=84-	=84-	=84-
2BB-,</	-cto	2B-,<\	-cto	2B-y\	-cto
1BB-	ex	1B-	Ex	1d	Ex
!	!	!	!	!LO:SIC:v:t=custos c	!
2BB-/	Ma-	2B-\	Ma-	2d\	Ma-
!	!	!	!	!LO:LB:g=original	!
=85-	=85-	=85-	=85-	=85-	=85-
!	!	!LO:SIC:v:t=custos G	!	!	!
2C/	-ri-	2G/	-ri-	2c\	-ri-
!	!	!LO:LB:g=original	!	!	!
2C/	-a	1G	-a	2c\	-a
1.D	Vir-	.	.	1.A	Vir-
!	!	!LO:TX:t=P:problem:♯ below	!	!	!
.	.	4F#X/	.	.	.
.	.	4E/	Vir-	.	.
=86-	=86-	=86-	=86-	=86-	=86-
!	!	!LO:TX:t=P:problem:♯ below	!	!	!
.	.	4F#X/	.	.	.
.	.	2G/	.	.	.
2D/	-gi-	.	.	2A/	-gi-
!	!	!LO:TX:t=P:problem:♯ below	!	!	!
.	.	4F#X/	-gi-	.	.
!	!	!	!	!LO:TX:t=P:problem:♯ below	!
!	!	!	!	!LO:N:acc=#	!
1GG,<	-ne	1G	-ne	1Bn	-ne
=87-	=87-	=87-	=87-	=87-	=87-
!LO:SIC:v:t=custos (tekstowy) Homo	!	!	!	!	!
!LO:SIC:v:t=custos C	!	!	!	!	!
!LO:TX:b:i:t=Homo	!	!	!	!	!
0GG	Et	0G	et	0Bny	et
!LO:PB:g=original	!	!	!	!	!
=88-	=88-	=88-	=88-	=88-	=88-
1C	Ho-	1G	Ho-	1c	Ho-
1BB-	-mo	1B-	-mo	2d\	-mo
.	.	.	.	1d\	.
=89-	=89-	=89-	=89-	=89-	=89-
1.E-X	fa-	1.G	fa-	.	.
.	.	.	.	4c\	fa-
.	.	.	.	4B-y\	.
.	.	.	.	4c\	.
.	.	.	.	2d\	.
2E-\	-ctus	2G/	-ctus	.	.
.	.	.	.	4c\	-ctus
=90-	=90-	=90-	=90-	=90-	=90-
0D;;l	eſt.	0Al	eſt.	0d;;l	est.
!	!	!LO:LB:g=original	!	!	!
=91||	=91||	=91||	=91||	=91||	=91||
*M2/1	*	*M2/1	*	*M2/1	*
*met(C|)	*	*met(C|)	*	*met(C|)	*
!LO:TX:a:t=P:problem:w partii Basu brak ponowienia oznaczenia metrycznego (C|) w tym miejscu	!	!	!	!	!
!	!	!LO:TX:b:t=a3.	!	!	!
!	!	!	!	!LO:TX:a:t=P:problem:w źródle ta adnotacja zapisana na pięciolinii	!
!	!	!	!	!LO:TX:a:i:t=Crucifixus\nTacet.	!
00r	.	1.A	CRu-	0ryy	.
.	.	2A/	-ci-	.	.
=92-	=92-	=92-	=92-	=92-	=92-
.	.	2.G/	-fi-	0ryy	.
.	.	4G/	-xus	.	.
.	.	2B-\	.	.	.
.	.	2B-\	e-	.	.
=93-	=93-	=93-	=93-	=93-	=93-
0rD	.	2A/	-ti-	0ryy	.
.	.	2F/	-am	.	.
.	.	4G/	pro	.	.
.	.	4F/	.	.	.
.	.	4G/	no-	.	.
.	.	4A/	.	.	.
=94-	=94-	=94-	=94-	=94-	=94-
1rD	.	1B-	.	0ryy	.
2rC	.	0A	-bis	.	.
1D\	CRu-	.	.	.	.
=95-	=95-	=95-	=95-	=95-	=95-
.	.	.	.	0ryy	.
2D/	-ci-	.	.	.	.
2.C/	-fi-	2rF	.	.	.
.	.	1G/	e-	.	.
4C/	-xus	.	.	.	.
=96-	=96-	=96-	=96-	=96-	=96-
2E-X\	e-	.	.	0ryy	.
2E-\	-ti-	2G/	-ti-	.	.
!	!	!LO:TX:t=P:problem:♯ below	!	!	!
2D/	-am	2F#X/	-am	.	.
!	!	!LO:SIC:v:t=custos F#	!	!	!
2BB-/	pro	1G/	pro	.	.
!	!	!LO:LB:g=original	!	!	!
=97-	=97-	=97-	=97-	=97-	=97-
2C/	no-	.	.	0ryy	.
!	!	!LO:TX:t=P:problem:♯ below	!	!	!
2D/	-bis	2F#X/	no-	.	.
2GG,</	.	1.G	-bis	.	.
!LO:SIC:v:t=custos E	!	!	!	!	!
2C/	Sub	.	.	.	.
!LO:LB:g=original	!	!	!	!	!
=98-	=98-	=98-	=98-	=98-	=98-
!LO:TX:t=P:problem:♭ above	!	!	!	!	!
2.E-X\	Pon-	.	.	0ryy	.
.	.	2G/	ſub	.	.
4E-\	-ti-	.	.	.	.
2D/	-o	2.B-\	Pon-	.	.
2BB-/	Pi-	.	.	.	.
.	.	4B-\	-ti-	.	.
=99-	=99-	=99-	=99-	=99-	=99-
1D	-la-	2A/	-o	0ryy	.
.	.	2F/ny	Pi-	.	.
1.C	-to	1A	-la-	.	.
=100-	=100-	=100-	=100-	=100-	=100-
.	.	2G/	to	0ryy	.
*	*	*	*ij	*	*
2G\	Sub	2C/	ſub	.	.
2.B-\	Pon-	2.G/	Pon-	.	.
4B-\	-ti-	4G/	-ti-	.	.
=101-	=101-	=101-	=101-	=101-	=101-
2A\	-o	2F/	-o	0ryy	.
2F\	Pi-	2D/	Pi-	.	.
1A	-la-	1F	-la-	.	.
=102-	=102-	=102-	=102-	=102-	=102-
1G	-to	4C/	.	0ryy	.
.	.	4D/	.	.	.
!	!	!LO:SIC:v:s=4E-	!	!	!
.	.	4E/	.	.	.
.	.	4F/	.	.	.
2r	.	2G/	-to	.	.
*	*	*	*Xij	*	*
*	*ij	*	*	*	*
2GG/	Sub	2D/	Sub	.	.
=103-	=103-	=103-	=103-	=103-	=103-
2.D/	Pon-	2.F/	Pon-	0ryy	.
!	!	!LO:SIC:v:t=custos E	!	!	!
4D/	-ti-	4F/	-ti-	.	.
!	!	!LO:PB:g=original	!	!	!
2C/	-o	2E/	-o	.	.
2AA/	Pi-	2C/	Pi-	.	.
=104-	=104-	=104-	=104-	=104-	=104-
!LO:SIC:v:t=custos GG	!	!	!	!	!
1C	-la-	1E	-la-	0ryy	.
!LO:LB:g=original	!	!	!	!	!
2GG,</	-to	2D,</	-to	.	.
*	*Xij	*	*	*	*
1C/	Paſ-	1E/	Paſ-	.	.
=105-	=105-	=105-	=105-	=105-	=105-
.	.	.	.	0ryy	.
!LO:TX:t=P:problem:♯ below	!	!	!	!	!
!LO:N:acc=#	!	!	!	!	!
2BBn/	-sus	2D/	.	.	.
2.C/	et	2C/	-sus	.	.
.	.	1G/	[et]	.	.
4C/	Se-	.	.	.	.
=106-	=106-	=106-	=106-	=106-	=106-
2BB-y/	-pul-	.	.	0ryy	.
2AA/	-tus	2F/	Se-	.	.
1GG	est,	2.G/	-pul-	.	.
.	.	4G/	.	.	.
=107-	=107-	=107-	=107-	=107-	=107-
2r	.	2F/	-tus	0ryy	.
*	*ij	*	*	*	*
1G	Paſ-	2E/	.	.	.
.	.	1D	est	.	.
!LO:TX:t=P:problem:♯ below	!	!	!	!	!
2F#X\	-ſus	.	.	.	.
=108-	=108-	=108-	=108-	=108-	=108-
2.G\	et	2rF	.	0ryy	.
.	.	1d	Paſ-	.	.
4G\	Se-	.	.	.	.
2F\ny	-pul-	.	.	.	.
2E\ny	-tus	2c\	-sus	.	.
=109-	=109-	=109-	=109-	=109-	=109-
2D,</	est,	1d	et	0ryy	.
*	*Xij	*	*	*	*
2D/	et	.	.	.	.
1G	Se-	2d\	Se-	.	.
.	.	1d\	-pul-	.	.
=110-	=110-	=110-	=110-	=110-	=110-
2A\	-pul-	.	.	0ryy	.
!	!	!LO:TX:t=P:problem:♯ below	!	!	!
!LO:SIC:v:t=custos D	!	!LO:SIC:v:t=custos d	!	!	!
2A\	-tus	2c#X\	-tus	.	.
!LO:LB:g=original	!	!LO:LB:g=original	!	!	!
2D,</	eſt	2d\	eſt	.	.
*	*ij	*	*	*	*
1G\	et	1B-\	et	.	.
=111-	=111-	=111-	=111-	=111-	=111-
.	.	.	.	0ryy	.
!LO:TX:t=P:problem:♯ below	!	!	!	!	!
2F#X\	Se-	2A/	Se-	.	.
2G\	-pul-	2B-\	-pul-	.	.
2G\	-tus	2B-\	-tus	.	.
=112-	=112-	=112-	=112-	=112-	=112-
1D	eſt	4A/	eſt	0ryy	.
*	*Xij	*	*	*	*
.	.	4G/	.	.	.
.	.	4A/	.	.	.
.	.	4B-\	.	.	.
2rC	.	2c,<\ny	.	.	.
2C/	Et	2G/	Et	.	.
=113-	=113-	=113-	=113-	=113-	=113-
2C/	.	2G/	re-	0ryy	.
2C/	re-	2G/	-ſur-	.	.
1.G	-ſur-	1.B-	-re-	.	.
=114-	=114-	=114-	=114-	=114-	=114-
.	.	.	.	0ryy	.
!LO:TX:t=P:problem:♯ below	!	!	!	!	!
4F#X\	-re-	4A/	-xit	.	.
4E\	.	4G/	.	.	.
!LO:TX:t=P:problem:♯ below	!	!	!	!	!
2F#X\	.	2A/	.	.	.
2G\	.	2B-\	.	.	.
=115-	=115-	=115-	=115-	=115-	=115-
2D/	-xit	2A,</	.	0ryy	.
1Fny	ter-	1A	ter-	.	.
2F\	-ti-	2A/	-ti-	.	.
=116-	=116-	=116-	=116-	=116-	=116-
1BB-	-a	1B-	-a	0ryy	.
*lig	*	*	*	*	*
!	!	!LO:SIC:v:t=custos G	!	!	!
1C	di-	2A/	di-	.	.
!	!	!LO:LB:g=original	!	!	!
.	.	2.G/	.	.	.
=117-	=117-	=117-	=117-	=117-	=117-
!LO:SIC:v:t=custos GG	!	!	!	!	!
1D	.	.	.	0ryy	.
!	!	!LO:TX:t=P:problem:♯ below	!	!	!
.	.	8F#X/L	.	.	.
.	.	8E/J	.	.	.
!	!	!LO:TX:t=P:problem:♯ below	!	!	!
.	.	2F#X/	.	.	.
!LO:LB:g=original	!	!	!	!	!
*Xlig	*	*	*	*	*
2GG,</	-e	2G,</	-e	.	.
1G\	Se-	1B-\	Se-	.	.
=118-	=118-	=118-	=118-	=118-	=118-
.	.	.	.	0ryy	.
2G\	-cun-	2G/	-cun-	.	.
2F\	-du(m)	2A/	-dum	.	.
2BB-/	Scri-	1B-\	Scri-	.	.
=119-	=119-	=119-	=119-	=119-	=119-
1F	-ptu-	.	.	0ryy	.
.	.	2A/	-ptu-	.	.
2BB-,</	-ras	2B-,<\	-ras	.	.
*	*ij	*	*ij	*	*
1E-X\	Se-	1G/	Se-	.	.
=120-	=120-	=120-	=120-	=120-	=120-
.	.	.	.	0ryy	.
2E-\	-cun-	2G/	-cun-	.	.
2D/	-dum	2F/ny	-dum	.	.
2E-X\	Scri-	1G/	Scri-	.	.
=121-	=121-	=121-	=121-	=121-	=121-
1C	-ptu-	.	.	0ryy	.
.	.	2A/	-ptu-	.	.
1.BB-,<	-ras	2B-,<\	-ras	.	.
*	*Xij	*	*Xij	*	*
.	.	1F/	Et	.	.
=122-	=122-	=122-	=122-	=122-	=122-
.	.	.	.	0ryy	.
2BB-/	Et	2B-\	a-	.	.
1C	aſ-	1G	-ſcen-	.	.
=123-	=123-	=123-	=123-	=123-	=123-
!	!	!LO:SIC:v:t=custos F	!	!	!
4D/	-cen-	1F	-dit	0ryy	.
4C/	.	.	.	.	.
4BB-/	.	.	.	.	.
4C/	.	.	.	.	.
!	!	!LO:LB:g=original	!	!	!
4D/	.	2rF	.	.	.
4E\ny	.	.	.	.	.
2.F\	.	2F/	et	.	.
=124-	=124-	=124-	=124-	=124-	=124-
.	.	1G	a-	0ryy	.
8E\L	.	.	.	.	.
8D\J	.	.	.	.	.
!LO:SIC:v:t=custos F	!	!	!	!	!
2E\	.	.	.	.	.
!LO:LB:g=original	!	!	!	!	!
2F,<\	-dit	4A/	-scen-	.	.
.	.	4G/	.	.	.
*	*ij	*	*	*	*
1A\	Et	4F/	.	.	.
.	.	4G/	.	.	.
=125-	=125-	=125-	=125-	=125-	=125-
.	.	4A/	.	0ryy	.
.	.	4B-\	.	.	.
2A\	aſ-	2.c\	.	.	.
1G	-cen-	.	.	.	.
!	!	!LO:TX:t=P:problem:♯ above	!	!	!
!	!	!LO:N:acc=#	!	!	!
.	.	8Bn\L	.	.	.
.	.	8A\J	.	.	.
!	!	!LO:TX:t=P:problem:♯ above	!	!	!
!	!	!LO:N:acc=#	!	!	!
.	.	2Bn\	.	.	.
=126-	=126-	=126-	=126-	=126-	=126-
1.C,<	-dit	2c,<\	-dit	0ryy	.
*	*Xij	*	*	*	*
*	*	*	*ij	*	*
.	.	1G	Et	.	.
2C/	et	2c\	a-	.	.
=127-	=127-	=127-	=127-	=127-	=127-
1D	aſ-	1A	-scen-	0ryy	.
4E\	-cen-	2G/	-dit	.	.
*	*	*	*Xij	*	*
4D\	.	.	.	.	.
4C/	.	2c\	et	.	.
4D/	.	.	.	.	.
=128-	=128-	=128-	=128-	=128-	=128-
4E\	.	2c\	a-	0ryy	.
4F\	.	.	.	.	.
2.G\	.	2.B-y\	-Scen-	.	.
!LO:TX:t=P:problem:♯ below	!	!	!	!	!
8F#X\L	.	8A/L	.	.	.
!	!	!LO:SIC:v:t=custos A	!	!	!
8E\J	.	8G/J	.	.	.
!LO:TX:t=P:problem:♯ below	!	!	!	!	!
!	!	!LO:LB:g=original	!	!	!
2F#X\	.	2A/	.	.	.
=129-	=129-	=129-	=129-	=129-	=129-
2G,<\	-dit	2B-\	-dit	0ryy	.
2B-\	in	1d	in	.	.
1A	Cae-	.	.	.	.
!	!	!LO:TX:t=P:problem:♯ below	!	!	!
.	.	2c#X\	Cae-	.	.
=130-	=130-	=130-	=130-	=130-	=130-
2D,</	-lum	2d\	-lum	0ryy	.
1G	ſe-	1B-	Se-	.	.
!LO:TX:t=P:problem:♯ below	!	!	!	!	!
!LO:SIC:v:t=custos  (tektsowy) ad	!	!	!	!	!
!LO:TX:b:i:t=ad	!	!	!	!	!
!LO:SIC:v:t=custos G	!	!	!	!	!
2F#X\	-det	2A/	-det	.	.
!LO:PB:g=original	!	!	!	!	!
=131-	=131-	=131-	=131-	=131-	=131-
2G\	ad	2B-\	ad	0ryy	.
2.D/	dex-	2.A/	dex-	.	.
4D/	-te-	4A/	-te-	.	.
2F\ny	-ram	1d\	-ram	.	.
=132-	=132-	=132-	=132-	=132-	=132-
1E	Pa-	.	.	0ryy	.
.	.	2c\ny	Pa-	.	.
2D,</	-tris	0d	-tris	.	.
2D/	ad	.	.	.	.
=133-	=133-	=133-	=133-	=133-	=133-
1.G	dex-	.	.	0ryy	.
.	.	2rc	.	.	.
2F\	-te-	1d\	Se-	.	.
=134-	=134-	=134-	=134-	=134-	=134-
2G\	-ram	.	.	0ryy	.
2A\	P(a)-	2c\	-det	.	.
2D,</	-t(r)is	2d\	ad	.	.
1D\	Se-	2.A/	dex-	.	.
=135-	=135-	=135-	=135-	=135-	=135-
.	.	.	.	0ryy	.
.	.	4A/	.	.	.
2C/	-det	2c\	-te-	.	.
2D/	ad	4B-\	-ram	.	.
!	!	!LO:SIC:v:t=custos G	!	!	!
.	.	4A\	Pa-	.	.
!	!	!LO:LB:g=original	!	!	!
2.GG/	dex-	4G/	.	.	.
.	.	4F/	.	.	.
=136-	=136-	=136-	=136-	=136-	=136-
.	.	4E/	.	0ryy	.
4GG/	-te-	4D/	.	.	.
2BB-/	-ram	2.G/	.	.	.
1AA	Pa-	.	.	.	.
.	.	8F/L	.	.	.
.	.	8E/J	.	.	.
.	.	2F/	-tris	.	.
=137-	=137-	=137-	=137-	=137-	=137-
2GG,</	-tris	2G/	.	0ryy	.
!LO:SIC:v:t=custos C	!	!	!	!	!
2GG/	ad	2D/	Pa-	.	.
!LO:LB:g=original	!	!	!	!	!
1.C	dex-	2E/	.	.	.
.	.	4C/	.	.	.
.	.	4D/	.	.	.
=138-	=138-	=138-	=138-	=138-	=138-
.	.	8E/L	.	0ryy	.
.	.	8D/	.	.	.
.	.	8E/	.	.	.
.	.	8F/J	.	.	.
2BB-/	-te-	1G	.	.	.
2C/	-ram	.	.	.	.
!	!	!LO:TX:t=P:problem:♯ below	!	!	!
2D/	Pa-	2F#X/	-tris	.	.
=139-	=139-	=139-	=139-	=139-	=139-
2GG,</	-tris	2G/	.	0ryy	.
*	*ij	*	*	*	*
1G	ad	1d	ad	.	.
2.C/	dex-	2.e-X\	dex-	.	.
=140-	=140-	=140-	=140-	=140-	=140-
.	.	.	.	0ryy	.
!	!	!LO:SIC:v:t=custos d	!	!	!
4C/	-te-	4e-\	-te-	.	.
!LO:TX:t=P:problem:♯ above	!	!	!	!	!
!LO:N:acc=#	!	!	!	!	!
!	!	!LO:LB:g=original	!	!	!
2BBn/	-ram	2d\	-ram	.	.
1C	Pa-	1.c	.	.	.
=141-	=141-	=141-	=141-	=141-	=141-
0G	-tris	.	.	0ryy	.
*	*Xij	*	*	*	*
!	!	!LO:TX:t=P:problem:♯ below	!	!	!
!	!	!LO:N:acc=#	!	!	!
.	.	4Bn\	Pa-	.	.
.	.	4A\	.	.	.
!	!	!LO:TX:t=P:problem:♯ below	!	!	!
!	!	!LO:N:acc=#	!	!	!
!	!	!LO:SIC:v:t=custos A	!	!	!
.	.	1Bnl	-tris.	.	.
!	!	!LO:PB:g=original	!	!LO:LB:g=original	!
=142||	=142||	=142||	=142||	=142||	=142||
*M2/1	*	*M2/1	*	*M2/1	*
*met(C|)	*	*met(C|)	*	*met(C|)	*
00r	.	1A	ET	1D	ET
.	.	2.B-\	i-	2.G/	i-
.	.	4B-\	-te-	4G/	-te-
=143-	=143-	=143-	=143-	=143-	=143-
.	.	2A/	-rum	2F/	-rum
.	.	2d\	Ven-	2D/	Ven-
.	.	2B-\	-tu-	2E-X/	-tu-
.	.	2c\	-rus	2E-/	-rus
=144-	=144-	=144-	=144-	=144-	=144-
2rC	.	1d	est	1D	est
2GG/	ET	.	.	.	.
*	*	*	*ij	*	*
2.C/	i-	0G	ET	1rA	.
4C/	-te-	.	.	.	.
=145-	=145-	=145-	=145-	=145-	=145-
2BB-/	-rum	.	.	2rF	.
*	*	*	*	*	*ij
2GG/	ven-	.	.	2G/	ET
2AA/	-tu-	2.c\	i-	2Eny/	i-
!LO:SIC:v:t=custos  GG	!	!	!	!	!
2AA/	-rus	.	.	2F/	-te-
.	.	4c\	-te-	.	.
!LO:LB:g=original	!	!	!	!	!
=146-	=146-	=146-	=146-	=146-	=146-
1GG	eſt	2B-\	-rum	2G/	-rum
.	.	2G/	Ven-	2G/	Ven-
0rC	.	2A/	-tu-	2.c\	-tu-
.	.	2A/	-rus	.	.
!	!	!	!	!LO:SIC:v:t=custos B-	!
.	.	.	.	4c\	-rus
*	*	*	*	*	*Xij
!	!	!	!	!LO:PB:g=original	!
=147-	=147-	=147-	=147-	=147-	=147-
.	.	1.G	est	2B-\	Ven-
*	*	*	*Xij	*	*
.	.	.	.	2G/	.
*	*ij	*	*	*	*
1D	ET	.	.	2A/	-tu-
.	.	2F/	Ven-	2A/	-rus
=148-	=148-	=148-	=148-	=148-	=148-
2.G\	i-	2E-X/	-tu-	1G	est
!	!	!LO:SIC:v:t=custos D	!	!	!
.	.	2E-/	-rus	.	.
4G\	-te-	.	.	.	.
!	!	!LO:LB:g=original	!	!	!
2F\	-rum	2D/	est	2rF	.
*	*	*	*ij	*	*ij
!	!	!	!	!LO:TX:t=P:problem:♯ below	!
2D/	ven-	2d\	Ven-	2F#X/	Ven-
=149-	=149-	=149-	=149-	=149-	=149-
2E-X\	-tu-	2.B-\	-tu-	2.G/	-tu-
2E-\	-rus	.	.	.	.
.	.	4c\	-rus	4G/	-rus
2D,</	eſt	2d\	est	2A,</	est
*	*Xij	*	*Xij	*	*Xij
!	!	!LO:TX:t=P:problem:♯ below	!	!	!
!	!	!LO:N:acc=#	!	!	!
2GG/	cum	2Bn\	cum	2G/	cum
=150-	=150-	=150-	=150-	=150-	=150-
1.C	glo-	1.c	glo-	1.G	glo-
2C/	-ri-	2c\	-ri-	2G/	-ri-
=151-	=151-	=151-	=151-	=151-	=151-
2BB-,</	-a	2d\	-a	2B-,<\	a
1F	iu-	1c	iu-	1A	iu-
2C/	-di-	2c\	-di-	1G/	-di-
=152-	=152-	=152-	=152-	=152-	=152-
1D	-ca-	1A	-ca-	.	.
!	!	!	!	!LO:TX:t=P:problem:♯ below	!
.	.	.	.	2F#X/	-ca-
2GG/	-re	1G	-re	2G,</	-re
2G\	vi-	.	.	2B-\	Vi-
=153-	=153-	=153-	=153-	=153-	=153-
2G\	-uos	1r	.	2B-\	-uos
!LO:TX:t=P:problem:♯ below	!	!	!	!	!
!LO:SIC:v:t=custos G	!	!	!	!LO:SIC:v:t=custos B-	!
2F#X\	et	.	.	2A/	et
!LO:LB:g=original	!	!	!	!LO:LB:g=original	!
2G\	mor-	2r	.	2B-\	mor-
2E-X\	-tu-	2G/	Vi-	2c\	-tu-
=154-	=154-	=154-	=154-	=154-	=154-
1D	-os	2B-y\	-uos	1d	-os
.	.	2A/	et	.	.
1r	.	2B-\	mor-	1r	.
.	.	2c\	-tu-	.	.
=155-	=155-	=155-	=155-	=155-	=155-
2r	.	2d,<\	-os	2r	.
!	!	!	!	!LO:TX:t=P:problem:♯ below	!
1D	cu-	1A	Cu-	1F#X	Cu-
2D/	-ius	2A/	-ius	2F#/	-ius
=156-	=156-	=156-	=156-	=156-	=156-
1GG	re-	1B-	re-	1G	re-
2D,</	-gni	2.A/	-gni	2F/ny	-gni
2D/	non	.	.	2F/	non
!	!	!LO:SIC:v:t=custos A	!	!	!
.	.	4A/	non	.	.
!	!	!LO:LB:g=original	!	!	!
=157-	=157-	=157-	=157-	=157-	=157-
2C/	e-	2A/	e-	2E/	e-
2BB-/	-rit	1G	-rit	2D/	-rit
1AA	fi-	.	.	1C	fi-
.	.	2F/	fi-	.	.
=158-	=158-	=158-	=158-	=158-	=158-
2GG,</	-nis	2G,</	-nis	2D,</	-nis
1GG	Et	1B-	Et	1G	Et
2GG/	in	2B-\	in	2G/	in
=159-	=159-	=159-	=159-	=159-	=159-
2.D/	Spi-	2.A/	Spi-	2.F#X/	Spi-
4D/	-ri-	4A/	-ri-	4F#/	-r(i-
2C/	-tum	2c\	-tum	2G,</	-tum)
1F\ny	San-	1c\	S(a)n-	1A\	San-
=160-	=160-	=160-	=160-	=160-	=160-
.	.	.	.	.	.
!LO:SIC:v:t=custos G	!	!	!	!	!
2F\	-ctum	2c\	-ctum	2A/	-ct(um)
!	!	!	!	!LO:SIC:v:t=custos G	!
!LO:LB:g=original	!	!	!	!	!
2.G\	Do-	2B-\	D(o-	2B-\	Do-
!	!	!	!	!LO:LB:g=original	!
.	.	2B-\	-mi)-	2G/	-mi-
4G\	-mi-	.	.	.	.
=161-	=161-	=161-	=161-	=161-	=161-
2F,<\	-num	2c\	-num	2A/	-num
1BB-	et	1d	et	1B-	et
2BB-/	Vi-	2d\	Vi-	2B-\	Vi-
=162-	=162-	=162-	=162-	=162-	=162-
2C/	-ui-	2c\	-ui-	2G/	-ui-
2GG/	-fi-	2B-\	-fi-	1G	-fi-
1D	-can-	1A	-can-	.	.
.	.	.	.	2F#X/	-can-
=163-	=163-	=163-	=163-	=163-	=163-
2GG,</	-tem	1G	-tem	2G,</	-tem
!	!	!	!	!LO:TX:t=P:problem:♯ below	!
!	!	!	!	!LO:N:acc=#	!
1G	qui	.	.	1Bn	qui
.	.	00r	.	.	.
2G\	ex	.	.	2B\	ex
=164-	=164-	=164-	=164-	=164-	=164-
1A	Pa-	.	.	1.c	Pa-
1G,<	-tre	.	.	.	.
.	.	.	.	2B-y\	-tre
=165-	=165-	=165-	=165-	=165-	=165-
2F\	Fi-	.	.	2A/	Fi-
2E\ny	-li-	.	.	2G/	-li-
2D/	-o-	2r	.	2A/	-o-
1BB-/,<	-q(ue)	1d\	pro-	2.B-\	-q(ue)
=166-	=166-	=166-	=166-	=166-	=166-
.	.	.	.	.	.
.	.	.	.	4A/	.
2C/	pro-	4c\	.	2G/	.
!	!	!LO:SIC:v:t=custos A	!	!	!
.	.	4B-\	.	.	.
!	!	!	!	!LO:TX:t=P:problem:♯ below	!
!	!	!LO:LB:g=original	!	!	!
2D/	-ce-	2A/	.	2F#X/	pro-
!LO:SIC:v:t=custos AA	!	!	!	!LO:SIC:v:t=custos E	!
2GG/	.	2B-\	-ce-	2G/	-ce-
!LO:LB:g=original	!	!	!	!LO:LB:g=original	!
=167-	=167-	=167-	=167-	=167-	=167-
1AA	.	1A	-dit	1E	.
2BB-,</	-dit	2F/	pro-	2D/	-dit
2GG/	pro-	2B-\	-ce-	1G/	pro-
=168-	=168-	=168-	=168-	=168-	=168-
1D	-ce-	1A	.	.	.
!	!	!	!	!LO:TX:t=P:problem:♯ below	!
.	.	.	.	2F#X/	-ce-
!	!	!LO:TX:t=P:problem:♯ below	!	!	!
!	!	!LO:N:acc=#	!	!	!
0.GG	-dit	0Bn	-dit	2G,</	-dit
.	.	.	.	1G/	qui
=169-	=169-	=169-	=169-	=169-	=169-
.	.	.	.	.	.
.	.	.	.	2G/	cum
!	!	!	!	!LO:SIC:v:s=1Bn:t=?	!
.	.	0r	.	1B-	Pa-
=170-	=170-	=170-	=170-	=170-	=170-
0rD	.	.	.	2A/	-tre
.	.	.	.	2F/ny	et
.	.	1.c	Qui	1.A	Fi-
=171-	=171-	=171-	=171-	=171-	=171-
1rD	.	.	.	.	.
.	.	2c\	cum	2A/	-li-
2rC	.	2d\	Pa-	1G	-o
1C/	Qui	1e-X\	-tre	.	.
=172-	=172-	=172-	=172-	=172-	=172-
.	.	.	.	2rF	.
*	*	*	*	*	*ij
2C/	cum	2e-\	et	1G	qui
1E-X	Pa-	2.B-y\	Fi-	.	.
.	.	.	.	2G/	cum
.	.	4c\	-li-	.	.
=173-	=173-	=173-	=173-	=173-	=173-
2D/	-tre	1.d	-o	1B-	Pa-
2BB-/	et	.	.	.	.
1.D	Fi-	.	.	2A/	-tre
.	.	2D/	et	2F/	et
=174-	=174-	=174-	=174-	=174-	=174-
.	.	2.F/	Fi-	2.A/	Fi-
2D/	-li-	.	.	.	.
!	!	!	!	!LO:SIC:v:t=custos c	!
.	.	4F/	-li-	4B-\	-li-
!	!	!	!	!LO:LB:g=original	!
2C,</	-o	2G/	-o	2c,<\	-o
*	*	*	*	*	*Xij
1F\	ſi-	1A\	Si-	1c\	Si-
=175-	=175-	=175-	=175-	=175-	=175-
.	.	.	.	.	.
!	!	!LO:SIC:v:t=custos G	!	!	!
2BB-/	-mul	2B-\	-mul	2d\	-mul
!	!	!LO:LB:g=original	!	!	!
2C/	a-	2G/	a-	2c\	a-
!LO:SIC:v:t=custos E	!	!	!	!	!
2D/	-do-	2F/	-do-	2.B-\	-do-
!LO:PB:g=original	!	!	!	!	!
=176-	=176-	=176-	=176-	=176-	=176-
*	*	*lig	*	*	*
1Eny	-ra-	1G	-ra-	.	.
.	.	.	.	4A/	.
.	.	.	.	1G	-ra-
1D	-tur	1A	.	.	.
!	!	!	!	!LO:TX:t=P:problem:♯ below	!
.	.	.	.	2F#X/	-tur
*	*	*Xlig	*	*	*
=177-	=177-	=177-	=177-	=177-	=177-
2r	.	1G	-tur	2G,</	.
2G\	et	.	.	2B-\	et
2F\	con-	2r	.	2A/	con-
2D/	-glo-	2d\	et	2F/ny	-glo-
=178-	=178-	=178-	=178-	=178-	=178-
2F\	-ri-	2c\	con-	2A/	-ri-
2F\	-fi-	2A/	-glo-	2A/	-fi-
4C/	-ca-	2c\	-ri-	4G/	-ca-
4D/	.	.	.	4F/	.
4E\	.	2c\	-fi-	4G/	.
4F\	.	.	.	4A/	.
=179-	=179-	=179-	=179-	=179-	=179-
2.G\	.	2.B-\	-ca-	4B-\	.
.	.	.	.	4c\	.
.	.	.	.	2.d\	.
4F\	.	4A/	.	.	.
1E-X	.	1G	-tur	.	.
.	.	.	.	8c\L	.
!	!	!	!	!LO:SIC:v:t=custos c	!
.	.	.	.	8B-\J	.
!	!	!	!	!LO:LB:g=original	!
.	.	.	.	2c\	-tur
=180-	=180-	=180-	=180-	=180-	=180-
1.D,<	tur	0A	.	1d	.
.	.	.	.	1r	.
2D/	et	.	.	.	.
=181-	=181-	=181-	=181-	=181-	=181-
2C/	con-	1c	et	2r	.
2AA/	-glo-	.	.	2A/	et
2C/	-ri-	2c\	con-	2G/	con-
!LO:SIC:v:t=custos GG	!	!	!	!	!
2C/	-fi-	2G/	-glo-	2E/	-glo-
!LO:LB:g=original	!	!	!	!	!
=182-	=182-	=182-	=182-	=182-	=182-
4GG/	-ca-	1B-	-ri-	2G/	-ri-
4AA/	.	.	.	.	.
4BB-/	.	.	.	2G/	-fi-
4C/	.	.	.	.	.
2.D/	.	2A/	-fi-	2.F/	-ca-
.	.	2.A/	-ca-	.	.
4C/	.	.	.	4E/	-tur
=183-	=183-	=183-	=183-	=183-	=183-
1BB-	.	.	.	1D	.
.	.	8G/L	.	.	.
.	.	8F/J	.	.	.
.	.	2G/	.	.	.
!	!	!LO:SIC:v:t=custos d	!	!	!
2AA,</	-tur	2A/	-tur	2E,</	.
!	!	!LO:LB:g=original	!	!	!
1GG/	qui	1d\	qui	1G/	qui
=184-	=184-	=184-	=184-	=184-	=184-
.	.	.	.	.	.
2GG/	lo-	2d\	lo-	2G/	lo-
2.C/	-cu-	2.e-X\	-cu-	2.G/	-cu-
4C/	-tus	4e-\	-tus	4G/	-tus
=185-	=185-	=185-	=185-	=185-	=185-
2GG,</	eſt	2d\	eſt	2G/	est
1G	per	2.d\	.	2.B-\	per
.	.	4c\	per	4A\	.
2G\	Pro-	2B-\	Pro-	4B-\	.
!	!	!	!	!LO:SIC:v:t=custos A	!
.	.	.	.	4G/	.
!	!	!	!	!LO:LB:g=original	!
=186-	=186-	=186-	=186-	=186-	=186-
0F	-phe-	2c\	.	2A/	.
.	.	2d\	-phe-	1B-	Pro-
.	.	1c	.	.	.
.	.	.	.	2A/	-phe-
=187-	=187-	=187-	=187-	=187-	=187-
2BB-,</	-tas.	1d	-tas	2B-,<\	-tas
2B-\	Et	.	.	2d\	Et
2A\	V-	1r	.	2c\	V-
2F\	-nam	.	.	2A/	-nam
=188-	=188-	=188-	=188-	=188-	=188-
!LO:SIC:v:t=custos F	!	!	!	!	!
1G	San-	0d	San-	1B-	ſan-
!LO:LB:g=original	!	!	!	!	!
2F\	-ctam	.	.	2A/	-ctam
2D/	Ca-	.	.	2F/	Ca-
=189-	=189-	=189-	=189-	=189-	=189-
2.E-X\	-tho-	2B-\	-ctam	2.G/	-tho-
.	.	2c\	Ca-	.	.
4E-\	-li-	.	.	4G/	-li-
1D	-cam	2.d\	-tho-	1A	-cam
.	.	4d\	-li-	.	.
=190-	=190-	=190-	=190-	=190-	=190-
2rC	.	2c\	-cam	0rA	.
2C/	et	2G/	et	.	.
2.G\	A-	2.B-\	A-	.	.
!	!	!LO:SIC:v:t=custos A	!	!	!
4G\	-po-	4B-\	-po-	.	.
!	!	!LO:LB:g=original	!	!	!
=191-	=191-	=191-	=191-	=191-	=191-
2F\	-sto-	2A/	-ſto-	1rA	.
2E\ny	-li-	2G/	-li-	.	.
2D,</	-cam	2A/	-cam	2rF	.
2GG/	Ec-	2B-\	Ec-	2D/	Ec-
=192-	=192-	=192-	=192-	=192-	=192-
2.C/	-cle-	4A/	-cle-	2.E/	-cle-
.	.	4G/	.	.	.
.	.	1G	.	.	.
4BB-/	.	.	.	4D/	-si-
2AA/	.	.	.	2C/	-am
2AA/	-ſi-	2F/	-ſi-	2C/	.
=193-	=193-	=193-	=193-	=193-	=193-
2GG,</	-am	2G,</	-am	2D,</	.
!	!	!LO:TX:t=P:problem:♯ below	!	!LO:SIC:v:t=custos G	!
!	!	!LO:N:acc=#	!	!	!
2GG/	Con-	2Bn\	Con-	2G/	Con-
!	!	!	!	!LO:PB:g=original	!
1.C	-fi-	1.c	-fi-	1.G	-fi-
=194-	=194-	=194-	=194-	=194-	=194-
.	.	.	.	.	.
!LO:SIC:v:t=custos GG	!	!	!	!	!
2C/	-te-	2c\	-te-	2G/	-te-
!LO:LB:g=original	!	!	!	!	!
2GG,</	-or	2B-y\	-or	2G,</	-or
2GG/	V-	2d\	V-	2B-\	v-
=195-	=195-	=195-	=195-	=195-	=195-
2D/	-num	2d\	-num	2A/	-num
2E-X\	Ba-	2c\	ba-	2G/	Ba-
1D	-pti-	1d	-pti-	1A	-pti-
=196-	=196-	=196-	=196-	=196-	=196-
2GG,</	-ſma	2B-,<\	-ſma	2G,</	-sma
1GG	in	1B-	in	1G	in
2GG/	re-	2B-\	re-	2G/	re-
=197-	=197-	=197-	=197-	=197-	=197-
2C/	-miſ-	2c\	-miſ-	2G/	-miſ-
2BB-/	-si-	2d\	-si-	2B-\	-si-
!	!	!LO:SIC:v:t=custos B-	!	!	!
1C	-o-	1c	-o-	1G	-o-
!	!	!LO:PB:g=original	!	!	!
=198-	=198-	=198-	=198-	=198-	=198-
2GG,</	-nem	2B-\	-nem	2G/	-nem
1G	pec-	4G/	.	1B-	pec-
.	.	4A/	.	.	.
.	.	4B-\	pec-	.	.
.	.	4c\	.	.	.
2F\	-ca-	1d\	-ca-	2A/	-ca-
=199-	=199-	=199-	=199-	=199-	=199-
1E-X	-to-	.	.	1G	-to-
.	.	2c\	-to-	.	.
1D	-rum	2B-\	.	2A/	-rum
.	.	4A/	.	1d\	pec-
.	.	4G/	.	.	.
=200-	=200-	=200-	=200-	=200-	=200-
1r	.	1A	.	.	.
!	!	!	!	!LO:SIC:v:t=custos B-	!
.	.	.	.	2c\	-ca-
!	!	!	!	!LO:LB:g=original	!
2r	.	1D	-rum	2B-\	-to-
1D\	pec-	.	.	4A/	.
.	.	.	.	4G/	.
=201-	=201-	=201-	=201-	=201-	=201-
.	.	2rD	.	1A\	.
!LO:SIC:v:t=custos BB-	!	!	!	!	!
2C/	-ca-	1A	et	.	.
*lig	*	*	*	*lig	*
!LO:LB:g=original	!	!	!	!	!
1BB-	-to-	.	.	1D	.
.	.	2G/	ex-	.	.
=202-	=202-	=202-	=202-	=202-	=202-
1AA	.	1A	-pe-	1E	.
*Xlig	*	*	*	*Xlig	*
!	!	!LO:TX:t=P:problem:♯ below	!	!	!
2D,</	-rum	2F#X,</	-cto	2D,</	-rum
*	*	*	*ij	*	*
1D\	et	1F#/	et	1A\	et
=203-	=203-	=203-	=203-	=203-	=203-
.	.	.	.	.	.
2D/	ex-	2F#/	ex-	2A/	ex-
1GG	-pe-	1G	-pe-	1B-	-pe-
=204-	=204-	=204-	=204-	=204-	=204-
2D,</	-cto	2F,</ny	-cto	1A	-cto
*	*	*	*Xij	*	*
1D	re-	1F	re-	.	.
.	.	.	.	1.A	re-
2C/	-Sur-	2E/ny	-ſur-	.	.
=205-	=205-	=205-	=205-	=205-	=205-
2D/	-re-	2F/	-re-	.	.
!	!	!LO:SIC:v:t=custos F	!	!	!
2E\ny	-ctio-	2G/	-cti-	2G/	-ſur-
!	!	!LO:LB:g=original	!	!	!
2F\	-o-	1F	-o-	2A/	-re-
2D/	-nem	.	.	2B-\	-cti-
=206-	=206-	=206-	=206-	=206-	=206-
1.F	mor-	2D/	-nem	2.A/	-o-
.	.	1A	re-	.	.
.	.	.	.	4G/	.
.	.	.	.	2F/	.
2E\	-tu-	2G/	-ſur-	2C,</	-nem
=207-	=207-	=207-	=207-	=207-	=207-
0D	-o-	2A/	-re-	2.F/	mor-
.	.	2B-\	-cti-	.	.
.	.	.	.	4G/	.
.	.	2A/	-o-	2A/	-tu-
!	!	!	!	!LO:SIC:v:t=custos c	!
.	.	2F/	-nem	2B-\	.
!	!	!	!	!LO:LB:g=original	!
=208-	=208-	=208-	=208-	=208-	=208-
1C	-rum	2.G/	Mor-	1.c	-o-
.	.	4G/	-tu-	.	.
2r	.	1G	-o-	.	.
1G\	mor-	.	.	4B-\	.
.	.	.	.	4A/	.
=209-	=209-	=209-	=209-	=209-	=209-
.	.	1D	-rum	2B-\	.
!LO:TX:t=P:problem:♯ below	!	!	!	!	!
4F#X\	.	.	.	4A/	.
!LO:SIC:v:t=custos F#	!	!	!	!	!
4E\	.	.	.	4G/	.
!LO:LB:g=original	!	!	!	!	!
!LO:TX:t=P:problem:♯ below	!	!	!	!	!
2F#X\	.	0rF	.	2A/	.
2G\	-tu-	.	.	2B-\	.
=210-	=210-	=210-	=210-	=210-	=210-
*lig	*	*	*	*	*
1C	-o-	.	.	2A/	.
.	.	.	.	2.G/	.
1D	.	0d	Et	.	.
!	!	!	!	!LO:TX:a:t=P:problem:# below	!
.	.	.	.	8F#X/L	.
.	.	.	.	8E/J	.
!	!	!	!	!LO:TX:a:t=P:problem:# below	!
.	.	.	.	2F#X/	.
*Xlig	*	*	*	*	*
=211-	=211-	=211-	=211-	=211-	=211-
2GG,</	-rum	.	.	0G	-tum
2G\	Et	.	.	.	.
1C	vi-	1e-X	Vi-	.	.
=212-	=212-	=212-	=212-	=212-	=212-
1F,<ny	-tam	2c\	-tam	2r	.
.	.	2c\	Ven-	1A	Et
*	*ij	*	*	*	*
1D	Et	1d	-tu-	.	.
.	.	.	.	1B-\	Vi-
=213-	=213-	=213-	=213-	=213-	=213-
1E-X	vi-	1G	-ri	.	.
.	.	.	.	2G/	tam
2C,</	-tam	2.c\	.	2G/	Ven-
*	*Xij	*	*	*	*
2C/	ven-	.	.	1A\	-tu-
.	.	4B-\	Sae-	.	.
=214-	=214-	=214-	=214-	=214-	=214-
1D	-tu-	2.A/	.	.	.
!	!	!	!	!LO:SIC:v:t=custos G	!
!	!	!	!	!LO:TX:a:t=P:problem:# below	!
.	.	.	.	2F#X/	-ri
.	.	4A/	-cu-	.	.
!	!	!LO:SIC:v:t=custos B-	!	!	!
!	!	!	!	!LO:LB:g=original	!
2GG,</	-ri	2G/	-li	1rA	.
!	!	!LO:LB:g=original	!	!	!
!	!	!LO:TX:t=P:problem:♯ below	!	!	!
!	!	!LO:N:acc=#	!	!	!
2.G\	ſae-	2.Bn\	Sae-	.	.
=215-	=215-	=215-	=215-	=215-	=215-
.	.	.	.	2rF	.
4G\	-cu-	4Bny\	-cu-	.	.
2G,<\	-li	2B\	-li	2.G/	Sae-
2E-X\	A-	2.c\	.	.	.
.	.	.	.	4G/	-cu-
2C,</	-men	.	.	2G/	-li
.	.	4B\	A-	.	.
=216-	=216-	=216-	=216-	=216-	=216-
2.F\	A-	4A/	.	2.A/	A-
.	.	4Bny\	.	.	.
.	.	2.c\	.	.	.
!LO:SIC:v:t=custos  (tekstowy) men	!	!	!	!	!
!LO:SIC:v:t=custos D	!	!	!	!	!
!LO:TX:b:i:t=men	!	!	!	!	!
4E\ny	.	.	.	4G/	.
!LO:PB:g=original	!	!	!	!	!
1D	.	.	.	1.Fny	.
.	.	8B\L	.	.	.
.	.	8A\J	.	.	.
.	.	2B\	.	.	.
=217-	=217-	=217-	=217-	=217-	=217-
0C	-men	1c	-men	.	.
.	.	.	.	4E/	.
.	.	.	.	4D/	.
.	.	2r	.	1E	men
*	*	*	*ij	*	*
.	.	2.G/	Sae-	.	.
=218-	=218-	=218-	=218-	=218-	=218-
2rC	.	.	.	1C	.
.	.	4G/	-cu-	.	.
2.C/	Sae-	2G/	-li	.	.
.	.	2A/	A-	1rF	.
4C/	-cu-	.	.	.	.
2C/	-li	2.G/	.	.	.
=219-	=219-	=219-	=219-	=219-	=219-
1D	A-	.	.	2rD	.
!	!	!LO:TX:t=P:problem:♯ below	!	!	!
.	.	8F#X/L	.	.	.
.	.	8E/J	.	.	.
*	*	*	*	*	*ij
!	!	!LO:TX:t=P:problem:♯ below	!	!	!
.	.	2F#X/	.	2.d\	Sae-
0.GG	-men	2G,</	-men	.	.
*	*	*	*Xij	*	*
.	.	.	.	4d\	-cu-
.	.	2.d\	ſae-	2d\	-li
=220-	=220-	=220-	=220-	=220-	=220-
.	.	.	.	2.B-\	A-
!	!	!LO:SIC:v:t=custos d	!	!	!
.	.	4d\	-cu-	.	.
!	!	!LO:LB:g=original	!	!	!
.	.	2d\	-li	.	.
.	.	.	.	4A/	.
.	.	2.B-y\	A-	4G/	.
.	.	.	.	4A/	.
.	.	.	.	4B-\	.
.	.	4A/	.	4c\	.
=221-	=221-	=221-	=221-	=221-	=221-
!	!	!	!	!LO:SIC:v:t=custos G	!
2r	.	4G/	.	0d	.
.	.	4A/	.	.	.
2.G\	Sae-	4B-\	.	.	.
.	.	4c\	.	.	.
.	.	4d\	.	.	.
4G\	-cu-	4c\	.	.	.
2G\	-li	4B-\	.	.	.
.	.	4A\	.	.	.
!	!	!	!	!LO:LB:g=original	!
=222-	=222-	=222-	=222-	=222-	=222-
*	*	*lig	*	*	*
2.E-X\	A-	1B-	.	1G	-men
*	*	*	*	*	*Xij
4D/	-men	.	.	.	.
*lig	*	*col	*	*	*
1C	A-	2.c\	.	2rF	.
.	.	.	.	2.G/	A-
*	*	*Xlig	*	*	*
*	*	*Xcol	*	*	*
.	.	4B-\	.	.	.
=223-	=223-	=223-	=223-	=223-	=223-
1D	.	1A	-men	.	.
.	.	.	.	8F/L	.
.	.	.	.	8E/J	.
.	.	.	.	2F/	.
*Xlig	*	*	*	*	*
0GG	-men.	2G/	.	0G	.
*	*	*	*ij	*	*
!	!	!LO:TX:t=P:problem:♯ below	!	!	!
!	!	!LO:N:acc=#	!	!	!
.	.	2.Bn\	Sae-	.	.
=224-	=224-	=224-	=224-	=224-	=224-
.	.	.	.	.	.
.	.	4Bny\	-cu-	.	.
.	.	2B\	-li	.	.
0C	.	0c	A-	0G	-men.
=225-	=225-	=225-	=225-	=225-	=225-
.	.	.	.	.	.
!	!	!LO:N:acc=#	!	!	!
1GGl	.	1Bnl	-men	1Gl	.
*	*	*	*Xij	*	*
=-	=-	=-	=-	=-	=-
*-	*-	*-	*-	*-	*-
!!!system-decoration: [(s1,s2,s3)]
!!!RDF**kern: l = terminal long
!!!RDF**kern: > = above
!!!RDF**kern: < = below
!!!EED: Antoni Szymański
!!!EST: 2021-03-23
!!!ENC: Krzysztof Stępień
!!!END: 2021-03-09
